icons/Editor/table-2.svg

<svg viewBox="0 0 24 24" xmlns="http://www.w3.org/2000/svg"><path d="M13 10V14H19V10H13ZM11 10H5V14H11V10ZM13 19H19V16H13V19ZM11 19V16H5V19H11ZM13 5V8H19V5H13ZM11 5H5V8H11V5ZM4 3H20C20.5523 3 21 3.44772 21 4V20C21 20.5523 20.5523 21 20 21H4C3.44772 21 3 20.5523 3 20V4C3 3.44772 3.44772 3 4 3Z"/></svg>

<svg xmlns="http://www.w3.org/2000/svg" viewBox="0 0 24 24">
    <g>
        <path fill="none" d="M0 0h24v24H0z"/>
        <path fill-rule="nonzero" d="M13 10v4h6v-4h-6zm-2 0H5v4h6v-4zm2 9h6v-3h-6v3zm-2 0v-3H5v3h6zm2-14v3h6V5h-6zm-2 0H5v3h6V5zM4 3h16a1 1 0 0 1 1 1v16a1 1 0 0 1-1 1H4a1 1 0 0 1-1-1V4a1 1 0 0 1 1-1z"/>
    </g>
</svg>
